src/dark/hiso font dark_y.svg

<svg xmlns="http://www.w3.org/2000/svg" width="90" height="126" viewBox="0 0 90 126"><path fill="#000101" d="M72 36l-36-18-12 30-24-12 18 27v36l36 18v-36l18-45zm-34.43-13.86l30.62 15.311-16.21 40.519-15.98-23.97-9.31-4.65 10.88-27.21zm-16.57 75.01v-32.65l30 15v32.65l-30-15z"/></svg>

<svg xmlns="http://www.w3.org/2000/svg" width="90" height="126"><path fill="#000101" d="M72 36L36 18 24 48 0 36l18 27v36l36 18V81l18-45zM37.57 22.14l30.62 15.311L51.98 77.97 36 54l-9.31-4.65 10.88-27.21zM21 97.15V64.5l30 15v32.65l-30-15z"/></svg>
